X:1
T:Lansing (Gabriel), 11.11.11.11
T:Lansing (Gabriel), 11.11.11.11
T:Charles Hutchinson Gabriel, 1912
T:Public Domain Courtesy of the Cyber Hymnal™
C:Charles Hutchinson Gabriel, 1912
Z:Public Domain
Z:Courtesy of the Cyber Hymnal™
%%score ( 1 2 ) ( 3 4 )
L:1/8
Q:1/4=140
M:3/4
K:Bb
V:1 treble 
V:2 treble 
V:3 bass 
V:4 bass 
V:1
 [DF]2 | [Fd]2 [Ec]2 [DB]2 | [B,D]2 [A,E]2 [B,F]2 | [EG]2 [EA]2 [EB]2 | [DF]4 [FB]2 | %5
 [FA]2 F2 [Fc]2 | [FB]2 F2 [Fd]2 | [=Ec]2 [EG]2 [Ec]2 | [Fc]4 [Fd]2 | [Fe]2 [Fd]2 [Fc]2 | %10
 [Fd]2 [Fc]2 [FB]2 | [=Ec]2 [EG]2 [GB]2 | [FA]4 (GF) | [FB]2 [FB]2 [Fc]2 | [Fd]2 [Ff]2 [Ge]2 | %15
 [Fd]2 [Fd]2 [Ec]2 | [DB]4 |] %17
V:2
 x2 | x6 | x6 | x6 | x6 | x2 F2 x2 | x2 F2 x2 | x6 | x6 | x6 | x6 | x6 | x4 F2 | x6 | x6 | x6 | %16
 x4 |] %17
V:3
 [B,,B,]2 | [B,,B,]2 [B,,F,]2 [B,,F,]2 | [B,,F,]2 [C,F,]2 [D,B,]2 | [E,B,]2 [F,B,]2 [G,B,]2 | %4
 B,4 [D,B,]2 | [F,C]2 [F,A,]2 [E,A,]2 | [D,B,]2 [D,B,]2 [B,,B,]2 | [C,B,]2 [C,C]2 [C,B,]2 | %8
 [F,A,]4 [F,B,]2 | [F,C]2 [F,B,]2 [F,A,]2 | [B,,B,]2 [C,A,]2 [D,B,]2 | [C,B,]2 [C,C]2 [=E,C]2 | %12
 [F,C]4 [E,A,]2 | [D,B,]2 [D,B,]2 [F,A,]2 | B,2 [D,B,]2 [E,B,]2 | [F,B,]2 [F,G,]2 [F,A,]2 | %16
 [B,,B,]4 |] %17
V:4
 x2 | x6 | x6 | x6 | B,4 x2 | x6 | x6 | x6 | x6 | x6 | x6 | x6 | x6 | x6 | B,2 x4 | x6 | x4 |] %17

